X: 35b
T: The Ballydesmond #2
M: 2/4
L: 1/8
R: polka
K:Ador
|:"Am"AB|"C"c2 "G"B2|"Am"A2 G>A|"G"Bd ed|g2 ed|
"Am"ea "(C)"g>e|"G"dB G>B|"C"ce "G"dB|"Am"A2:|
|:cd|"Am"ea ag/e/|"G"dg gd|"Am"ea ab|"G"g2 ed|
"Am"ea "(C)"ge|"G"dB G>B|"C"ce "G"dB|"Am"A2:|


